packages/ffe-icons/icons/open/500/md/read_more.svg

<svg xmlns="http://www.w3.org/2000/svg" height="24" viewBox="0 -960 960 960" width="24"><path d="M349.848-434.5H117.37q-19.153 0-32.327-13.174T71.87-480q0-19.152 13.174-32.326T117.37-525.5h232.478l-83.913-84.674Q253.261-622.848 253-641.62q-.261-18.771 13.174-32.206Q278.848-686.5 298-686.5t31.826 12.674l161.761 161.761q13.674 13.674 13.674 32.065t-13.674 32.065L329.826-286.174Q317.152-273.5 298.5-273t-32.326-13.174Q253.5-298.848 253.5-318t12.674-31.826l83.674-84.674Zm217.565 171q-19.152 0-32.326-13.174T521.913-309q0-19.152 13.174-32.326t32.326-13.174H842.63q19.153 0 32.327 13.174T888.131-309q0 19.152-13.174 32.326T842.63-263.5H567.413Zm0-342q-19.152 0-32.326-13.174T521.913-651q0-19.152 13.174-32.326t32.326-13.174H842.63q19.153 0 32.327 13.174T888.131-651q0 19.152-13.174 32.326T842.63-605.5H567.413Zm120 171q-19.152 0-32.326-13.174T641.913-480q0-19.152 13.174-32.326t32.326-13.174H842.63q19.153 0 32.327 13.174T888.131-480q0 19.152-13.174 32.326T842.63-434.5H687.413Z"/></svg>

<svg xmlns="http://www.w3.org/2000/svg" height="24" viewBox="0 -960 960 960" width="24"><path d="M349.85-434.5H117.37q-19.15 0-32.33-13.17Q71.87-460.85 71.87-480t13.17-32.33q13.18-13.17 32.33-13.17h232.48l-83.92-84.67q-12.67-12.68-12.93-31.45-.26-18.77 13.17-32.21Q278.85-686.5 298-686.5t31.83 12.67l161.76 161.76q13.67 13.68 13.67 32.07t-13.67 32.07L329.83-286.17Q317.15-273.5 298.5-273t-32.33-13.17Q253.5-298.85 253.5-318t12.67-31.83l83.68-84.67Zm217.56 171q-19.15 0-32.32-13.17-13.18-13.18-13.18-32.33t13.18-32.33q13.17-13.17 32.32-13.17h275.22q19.15 0 32.33 13.17 13.17 13.18 13.17 32.33t-13.17 32.33q-13.18 13.17-32.33 13.17H567.41Zm0-342q-19.15 0-32.32-13.17-13.18-13.18-13.18-32.33t13.18-32.33q13.17-13.17 32.32-13.17h275.22q19.15 0 32.33 13.17 13.17 13.18 13.17 32.33t-13.17 32.33q-13.18 13.17-32.33 13.17H567.41Zm120 171q-19.15 0-32.32-13.17-13.18-13.18-13.18-32.33t13.18-32.33q13.17-13.17 32.32-13.17h155.22q19.15 0 32.33 13.17 13.17 13.18 13.17 32.33t-13.17 32.33q-13.18 13.17-32.33 13.17H687.41Z"/></svg>
